X: 1
T: Greensleeves
R: jig
M: 6/8
L: 1/8
K: Gmaj
E|G2A B3/2-c/B|A2F D3/2-E/F|G2E E3/2-^D/E|F2^D B,2E|
G2A B3/2-c/B|A2F D3/2-E/F|G3/2-F/E ^D3/2-^C/D|E3 E2z|
d3 d3/2-^c/B|A2F D3/2-E/-F|G2-E E3/2-^D/E|F2^D B,3|
d3 d3/2^c/B|A2F D3/2-E/F|G3/2F/E ^D3/2-^C/D|E3 E2z||


Tune 1598	Setting 15006

